img/map/pin_filled.svg

<svg viewBox="0 0 48 48" fill="none" xmlns="http://www.w3.org/2000/svg">
<g id="icon/pin_filled">
<g id="Vector">
<path d="M40.3635 17.7758C40.3635 9.16338 33.0373 2.18164 23.9999 2.18164C14.9625 2.18164 7.63623 9.16338 7.63623 17.7758V18.7151C7.63623 22.161 8.76607 25.5209 10.8678 28.3249L23.9675 45.8021C23.9834 45.8233 24.0164 45.8233 24.0322 45.8021L37.1319 28.3249C39.2337 25.5208 40.3635 22.161 40.3635 18.7151V17.7758Z" fill="#0266C1"/>
<path d="M21.0922 12.5764C22.9297 11.7391 25.0701 11.7391 26.9075 12.5764C28.7449 13.4137 30.0795 14.9972 30.5333 16.8786C30.9871 18.7599 30.5108 20.7345 29.2392 22.2432C27.9677 23.752 26.0393 24.6307 23.9999 24.6307C21.9605 24.6307 20.032 23.752 18.7605 22.2432C17.4889 20.7345 17.0127 18.7599 17.4665 16.8786C17.9203 14.9972 19.2548 13.4137 21.0922 12.5764Z" fill="white"/>
</g>
</g>
</svg>

<svg viewBox="0 0 48 48" fill="none" xmlns="http://www.w3.org/2000/svg"><path d="M40.364 17.776c0-8.613-7.327-15.594-16.364-15.594S7.636 9.163 7.636 17.776v.94c0 3.445 1.13 6.805 3.232 9.609l13.1 17.477a.04.04 0 0 0 .064 0l13.1-17.477c2.102-2.804 3.232-6.164 3.232-9.61v-.94Z" fill="#0266C1"/><path d="M21.092 12.576a7.045 7.045 0 0 1 5.816 0c1.837.838 3.171 2.421 3.625 4.303.454 1.88-.022 3.855-1.294 5.364-1.271 1.509-3.2 2.388-5.24 2.388-2.038 0-3.967-.879-5.238-2.388-1.272-1.508-1.748-3.483-1.294-5.364.453-1.882 1.788-3.465 3.625-4.303Z" fill="#fff"/></svg>
